.Content/icons/iconAnalytics.svg

<svg xmlns="http://www.w3.org/2000/svg" version="1.1" xmlns:xlink="http://www.w3.org/1999/xlink" preserveAspectRatio="none" x="0px" y="0px" width="64px" height="64px" viewBox="0 0 64 64">
<defs>
<g id="Layer1_0_FILL">
<path fill="#000222" stroke="none" d="
M 58.5 61.5
L 58.5 9.5 5.5 9.5 5.5 61.5 58.5 61.5 Z"/>
</g>

<g id="Layer0_0_FILL">
<path fill="#FFFFFF" stroke="none" d="
M 61 13
Q 61 7 55 7
L 9 7
Q 3 7 3 13
L 3 58
Q 3 64 9 64
L 55 64
Q 61 64 61 58
L 61 13
M 55 11
Q 57 11 57 13
L 57 58
Q 57 60 55 60
L 9 60
Q 7 60 7 58
L 7 13
Q 7 11 9 11
L 55 11
M 49.85 23.8
L 49.8 23.85
Q 49.01171875 24.7552734375 49 26 48.997265625 26.646484375 49.2 27.15
L 42.5 33.3 41.95 33.15
Q 41.5244140625 33.001953125 41 33 39.7552734375 33.01171875 38.85 33.8
L 38.45 34.2 34 32.85
Q 33.952734375 31.69609375 33.1 30.85 32.27890625 30.003515625 31 30 29.7552734375 30.01171875 28.85 30.8
L 28.8 30.85
Q 28.01171875 31.7552734375 28 33 28.002734375 33.97109375 28.5 34.65
L 22.9 42.1
Q 22.4802734375 42.005859375 22 42 20.7552734375 42.01171875 19.85 42.8
L 19.8 42.85 19.75 42.9 14.9 40.75
Q 14.9953125 40.4048828125 15 40 14.99609375 38.7390625 14.1 37.85 13.27890625 37.003515625 12 37 10.7552734375 37.01171875 9.85 37.8
L 9.8 37.85
Q 9.01171875 38.7552734375 9 40 9.003515625 41.27890625 9.85 42.1 10.4037109375 42.658203125 11.1 42.85 11.515234375 42.9978515625 12 43 12.987109375 42.9943359375 13.7 42.45
L 19 44.8
Q 18.999609375 44.8958984375 19 45 19.003515625 46.27890625 19.85 47.1 20.7390625 47.99609375 22 48 23.290234375 47.992578125 24.1 47.05
L 24.05 47.15
Q 24.520703125 46.77890625 24.75 46.3
L 24.75 46.25 24.75 46.2
Q 24.9927734375 45.63515625 25 45 24.9970703125 44.0630859375 24.5 43.3
L 30.1 35.85
Q 30.5197265625 35.9943359375 31 36 32.290234375 35.992578125 33.1 35.05
L 33.05 35.15
Q 33.2732421875 34.987109375 33.45 34.75
L 38 36.15
Q 38.054296875 37.328125 38.85 38.1 39.7390625 38.99609375 41 39 42.290234375 38.992578125 43.1 38.05
L 43.05 38.15
Q 43.520703125 37.77890625 43.75 37.3
L 43.75 37.25 43.75 37.2
Q 43.9927734375 36.63515625 44 36
L 43.95 35.55
Q 43.926953125 35.1939453125 43.8 34.85
L 43.8 34.85 49.95 29.2 50.55 28.65 50.55 28.65
Q 51.2146484375 28.99765625 52 29 52.511328125 28.9970703125 52.95 28.85 53.6208984375 28.6291015625 54.1 28.05
L 54.05 28.15
Q 54.520703125 27.77890625 54.75 27.3
L 54.75 27.25 54.75 27.2
Q 54.9927734375 26.63515625 55 26 54.99609375 24.7390625 54.1 23.85 53.27890625 23.003515625 52 23 50.7552734375 23.01171875 49.85 23.8
M 52 25
Q 52.42109375 24.996484375 52.7 25.25 53.00390625 25.5609375 53 26 53.0056640625 26.21015625 52.95 26.4 52.8791015625 26.5208984375 52.75 26.6
L 52.7 26.65 52.65 26.7
Q 52.409765625 27.007421875 52 27 51.5609375 27.00390625 51.25 26.7
L 51.2 26.65 51.25 26.65
Q 51.005078125 26.398046875 51 26 50.9890625 25.5826171875 51.2 25.25 51.2513671875 25.2513671875 51.25 25.2 51.5826171875 24.9890625 52 25
M 41 35
Q 41.175390625 34.9978515625 41.3 35.05
L 41.6 35.15 41.75 35.3
Q 41.994921875 35.601953125 42 36 42.0056640625 36.21015625 41.95 36.4 41.8791015625 36.5208984375 41.75 36.6
L 41.7 36.65 41.65 36.7
Q 41.409765625 37.007421875 41 37 40.5609375 37.00390625 40.25 36.7 39.996484375 36.42109375 40 36 39.9943359375 35.9041015625 40 35.8
L 40.25 35.25
Q 40.569921875 34.988671875 41 35
M 12.7 39.25
Q 13.00390625 39.5609375 13 40 13.0056640625 40.21015625 12.95 40.4 12.8791015625 40.5208984375 12.75 40.6
L 12.7 40.65 12.65 40.7
Q 12.409765625 41.007421875 12 41 11.5609375 41.00390625 11.25 40.7 10.996484375 40.42109375 11 40 10.9890625 39.5826171875 11.2 39.25 11.251171875 39.2515625 11.25 39.2 11.5826171875 38.9890625 12 39 12.42109375 38.996484375 12.7 39.25
M 30.4 33.8
L 30.4 33.8
Q 30.325 33.7455078125 30.25 33.7 29.996484375 33.42109375 30 33 29.9890625 32.5826171875 30.2 32.25 30.2513671875 32.2513671875 30.25 32.2 30.5826171875 31.9890625 31 32 31.42109375 31.996484375 31.7 32.25 32.00390625 32.5609375 32 33 32.003515625 33.134765625 32 33.25 31.9599609375 33.341015625 31.9 33.4 31.8654296875 33.53203125 31.75 33.6
L 31.7 33.65 31.65 33.7
Q 31.409765625 34.007421875 31 34 30.70546875 34.011328125 30.45 33.85 30.4521484375 33.8458984375 30.4 33.8
M 23 45
Q 23.0056640625 45.21015625 22.95 45.4 22.8791015625 45.5208984375 22.75 45.6
L 22.7 45.65 22.65 45.7
Q 22.409765625 46.007421875 22 46 21.5609375 46.00390625 21.25 45.7 20.996484375 45.42109375 21 45 21.0029296875 44.7751953125 21.05 44.6 21.1689453125 44.3845703125 21.3 44.2 21.6123046875 43.98984375 22 44 22.2798828125 43.9892578125 22.5 44.1 22.6013671875 44.225390625 22.75 44.3 23.003515625 44.5970703125 23 45 Z"/>

<path fill="#FFFFFF" fill-opacity="0.2980392156862745" stroke="none" d="
M 52.95 28.85
Q 52.511328125 28.9970703125 52 29 51.2146484375 28.99765625 50.55 28.65
L 49.95 29.2 43.8 34.85
Q 43.9361328125 35.1951171875 43.95 35.55
L 44 36
Q 43.9927734375 36.63515625 43.75 37.2
L 43.75 37.25 43.75 37.3
Q 43.520703125 37.77890625 43.05 38.15
L 43.1 38.05
Q 42.290234375 38.992578125 41 39 39.7390625 38.99609375 38.85 38.1 38.054296875 37.328125 38 36.15
L 33.45 34.75
Q 33.2732421875 34.987109375 33.05 35.15
L 33.1 35.05
Q 32.290234375 35.992578125 31 36 30.5197265625 35.9943359375 30.1 35.85
L 24.5 43.3
Q 24.9970703125 44.0630859375 25 45 24.9927734375 45.63515625 24.75 46.2
L 24.75 46.25 24.75 46.3
Q 24.520703125 46.77890625 24.05 47.15
L 24.1 47.05
Q 23.290234375 47.992578125 22 48 20.7390625 47.99609375 19.85 47.1 19.003515625 46.27890625 19 45 18.999609375 44.8958984375 19 44.8
L 13.7 42.45
Q 12.987109375 42.9943359375 12 43 11.515234375 42.9978515625 11.1 42.85
L 11 56 53 56 52.95 28.85 Z"/>
</g>
</defs>

<g transform="matrix( 1, 0, 0, 1, 0,0) ">
<use xlink:href="#Layer1_0_FILL"/>
</g>

<g transform="matrix( 1, 0, 0, 1, 0,0) ">
<use xlink:href="#Layer0_0_FILL"/>
</g>
</svg>

<svg xmlns="http://www.w3.org/2000/svg" xmlns:xlink="http://www.w3.org/1999/xlink" preserveAspectRatio="none" width="64" height="64">
	<defs>
		<g id="a" fill="#FFF">
			<path d="M61 6q0-6-6-6H9Q3 0 3 6v52q0 6 6 6h46q6 0 6-6V6m-6-2q2 0 2 2v52q0 2-2 2H9q-2 0-2-2V6q0-2 2-2h46m-.9 19.85q-.821-.846-2.1-.85-1.245.012-2.15.8l-.05.05q-.788.905-.8 2.15-.003.646.2 1.15l-6.7 6.15-.55-.15q-.426-.148-.95-.15-1.245.012-2.15.8l-.4.4L34 32.85q-.047-1.154-.9-2-.821-.846-2.1-.85-1.245.012-2.15.8l-.05.05q-.788.905-.8 2.15.003.971.5 1.65l-5.6 7.45q-.42-.094-.9-.1-1.245.012-2.15.8l-.05.05-.05.05-4.85-2.15q.095-.345.1-.75-.004-1.26-.9-2.15-.821-.846-2.1-.85-1.245.012-2.15.8l-.05.05q-.788.905-.8 2.15.004 1.279.85 2.1.554.558 1.25.75.415.148.9.15.987-.006 1.7-.55L19 44.8v.2q.004 1.279.85 2.1.89.896 2.15.9 1.29-.007 2.1-.95l-.05.1q.47-.371.7-.85v-.1q.243-.565.25-1.2-.003-.937-.5-1.7l5.6-7.45q.42.144.9.15 1.29-.007 2.1-.95l-.05.1q.223-.163.4-.4l4.55 1.4q.054 1.178.85 1.95.89.896 2.15.9 1.29-.007 2.1-.95l-.05.1q.47-.371.7-.85v-.1q.243-.565.25-1.2l-.05-.45q-.023-.356-.15-.7l6.15-5.65.6-.55q.665.348 1.45.35.511-.003.95-.15.67-.22 1.15-.8l-.05.1q.47-.371.7-.85v-.1q.243-.565.25-1.2-.004-1.26-.9-2.15M52 25q.421-.004.7.25.304.31.3.75.006.21-.05.4-.07.12-.2.2l-.05.05-.05.05q-.24.307-.65.3-.44.004-.75-.3l-.05-.05h.05q-.245-.252-.25-.65-.01-.417.2-.75.051.001.05-.05.333-.21.75-.2M41 35q.175-.002.3.05l.3.1.15.15q.245.302.25.7.006.21-.05.4-.07.12-.2.2l-.05.05-.05.05q-.24.307-.65.3-.44.004-.75-.3-.254-.279-.25-.7-.006-.096 0-.2l.25-.55q.32-.261.75-.25m-28.3 4.25q.304.31.3.75.006.21-.05.4-.07.12-.2.2l-.05.05-.05.05q-.24.307-.65.3-.44.004-.75-.3-.254-.279-.25-.7-.01-.417.2-.75.051.002.05-.05.333-.21.75-.2.421-.004.7.25m17.7-5.45q-.075-.054-.15-.1-.254-.279-.25-.7-.01-.417.2-.75.051.001.05-.05.333-.21.75-.2.421-.004.7.25.304.31.3.75.004.135 0 .25-.04.091-.1.15-.035.132-.15.2l-.05.05-.05.05q-.24.307-.65.3-.295.011-.55-.15.002-.004-.05-.05M23 45q.006.21-.05.4-.07.12-.2.2l-.05.05-.05.05q-.24.307-.65.3-.44.004-.75-.3-.254-.279-.25-.7.003-.225.05-.4.119-.215.25-.4.312-.21.7-.2.28-.01.5.1.101.125.25.2.254.297.25.7z" />
			<path fill-opacity=".298" d="M52.95 28.85q-.439.147-.95.15-.785-.002-1.45-.35l-.6.55-6.15 5.65q.136.345.15.7L44 36q-.007.635-.25 1.2v.1q-.23.479-.7.85l.05-.1q-.81.943-2.1.95-1.26-.004-2.15-.9-.796-.772-.85-1.95l-4.55-1.4q-.177.237-.4.4l.05-.1q-.81.943-2.1.95-.48-.006-.9-.15l-5.6 7.45q.497.763.5 1.7-.007.635-.25 1.2v.1q-.23.479-.7.85l.05-.1q-.81.943-2.1.95-1.26-.004-2.15-.9-.846-.821-.85-2.1v-.2l-5.3-2.35q-.713.544-1.7.55-.485-.002-.9-.15L11 56h42l-.05-27.15z" />
		</g>
	</defs>
	<use xlink:href="#a" />
</svg>
